<?xml version="1.0" encoding="UTF-8"?>
<map version="1.8" tiledversion="1.8.0" orientation="orthogonal" renderorder="right-down" width="30" height="20" tilewidth="550" tileheight="550" infinite="0" nextlayerid="16" nextobjectid="471">
 <tileset firstgid="1" source="iceobjects1.tsx"/>
 <tileset firstgid="26" source="snow_on_ice_brush_proper1.tsx"/>
 <tileset firstgid="134" source="ROCKLAVA.tsx"/>
 <tileset firstgid="242" source="MUDROCK.tsx"/>
 <tileset firstgid="350" source="GRASSMUD.tsx"/>
 <tileset firstgid="458" source="objects_all.tsx"/>
 <tileset firstgid="508" source="../../../../Desktop/Pixel-Realm-Combat-Heroes-public/levels/tmx/GRASSMUD.tsx"/>
 <layer id="1" name="Tile Layer 1" width="30" height="20">
  <data encoding="csv">
30,30,31,31,33,509,511,509,535,518,518,518,534,509,509,535,518,518,518,242,242,245,269,268,245,243,269,252,268,242,
30,33,49,34,48,351,352,351,350,351,516,530,529,518,518,528,531,516,516,244,243,242,267,266,242,242,267,250,266,269,
33,30,47,52,51,353,353,353,352,353,352,351,352,352,351,516,532,510,509,269,268,245,245,242,243,244,269,252,269,262,
30,32,30,47,52,51,34,48,350,350,351,350,351,350,353,353,353,509,508,267,266,269,268,243,269,252,267,250,267,264,
33,33,33,30,47,36,52,51,34,34,34,48,33,33,33,0,350,508,509,243,243,267,264,254,267,250,269,252,252,262,
33,33,30,32,33,32,47,36,36,52,27,51,34,48,33,33,350,509,510,243,244,243,267,266,244,242,267,250,250,266,
30,33,32,156,30,31,30,31,33,47,52,29,29,51,34,48,32,33,30,244,245,243,244,242,243,245,374,353,364,362,
32,32,146,148,138,138,32,32,33,33,47,36,52,26,28,51,48,33,49,34,34,34,48,31,364,362,352,377,370,371,
33,138,146,148,138,138,138,138,138,33,30,49,50,28,29,26,51,34,50,28,29,27,40,33,370,362,352,364,373,372,
30,157,158,159,156,157,142,142,156,138,34,50,29,27,29,26,26,26,26,28,26,29,51,48,373,374,377,370,362,364,
138,146,161,160,148,146,134,135,159,156,28,26,26,29,27,27,29,28,29,27,29,29,27,40,374,350,364,373,374,364,
138,146,159,158,159,158,160,161,160,148,27,28,29,28,29,26,26,28,29,26,28,26,29,51,352,377,370,362,377,370,
138,155,144,160,135,135,158,159,158,159,27,26,26,28,29,29,27,28,29,29,26,28,27,26,353,364,357,362,364,373,
138,157,142,158,135,134,161,160,161,144,27,29,29,29,26,27,29,27,26,28,27,28,27,26,377,370,373,374,364,362,
138,146,161,160,137,161,154,146,159,156,53,36,36,36,52,27,27,29,29,27,26,26,28,350,364,373,374,351,364,371,
138,146,148,155,160,159,142,158,137,159,156,33,33,33,47,36,52,28,27,27,29,26,27,377,370,362,350,351,375,358,
138,146,148,138,155,144,144,160,161,160,148,138,31,32,30,30,47,36,52,27,29,28,26,53,358,374,351,351,352,353,
138,146,159,142,142,156,138,155,154,155,154,138,30,31,30,32,30,30,38,26,27,29,27,353,350,350,350,353,351,351,
138,155,144,144,160,159,142,156,138,157,156,48,30,49,48,33,33,49,50,26,28,26,27,351,351,350,353,353,352,350,
138,138,138,138,155,144,160,159,156,155,154,138,138,138,40,49,48,38,28,26,29,27,28,351,351,350,352,351,350,350
</data>
 </layer>
 <objectgroup id="2" name="Object Layer 1">
  <object id="1" gid="1" x="4961.71" y="2910.81" width="198" height="166"/>
  <object id="2" gid="20" x="8458.67" y="3590.36" width="550" height="550"/>
  <object id="3" gid="24" x="11298.1" y="8182.43" width="550" height="550"/>
  <object id="4" gid="22" x="11071.2" y="3577.22" width="550" height="550"/>
  <object id="5" gid="5" x="8799.94" y="2266.41" width="550" height="550"/>
  <object id="7" gid="9" x="13986.3" y="3713.77" width="550" height="550"/>
  <object id="8" gid="4" x="6622.98" y="1500.16" width="550" height="550"/>
  <object id="9" gid="19" x="6226.56" y="1463.44" width="614" height="742"/>
  <object id="10" gid="21" x="5782.13" y="1444.53" width="550" height="550"/>
  <object id="11" gid="23" x="3954.96" y="3345.47" width="550" height="550"/>
  <object id="12" gid="22" x="6893.31" y="3152.13" width="736.988" height="732.266"/>
  <object id="13" gid="6" x="5297.3" y="3623.65" width="550" height="550"/>
  <object id="14" gid="11" x="5971.94" y="3625.84" width="550" height="550"/>
  <object id="15" gid="16" x="4752.24" y="1444.53" width="550" height="550"/>
  <object id="16" gid="2" x="2244.35" y="4201.47" width="550" height="550"/>
  <object id="17" gid="3" x="4616" y="3636.75" width="550" height="550"/>
  <object id="18" gid="18" x="7847.79" y="3798.24" width="190" height="118"/>
  <object id="19" gid="25" x="2740.3" y="4885.1" width="550" height="550"/>
  <object id="21" gid="20" x="8753" y="3693" width="550" height="550"/>
  <object id="22" gid="20" x="9057" y="3793" width="550" height="550"/>
  <object id="23" gid="4" x="6809" y="1585" width="550" height="550"/>
  <object id="24" gid="4" x="7053" y="1729" width="550" height="550"/>
  <object id="25" gid="4" x="7169" y="1333" width="550" height="550"/>
  <object id="26" gid="4" x="7113" y="1517" width="550" height="550"/>
  <object id="27" gid="4" x="7525" y="1105" width="550" height="550"/>
  <object id="28" gid="16" x="4333" y="1109" width="550" height="550"/>
  <object id="29" gid="21" x="5329" y="1301" width="550" height="550"/>
  <object id="30" gid="21" x="5717" y="853" width="550" height="550"/>
  <object id="161" gid="499" x="1405" y="6195" width="550" height="550"/>
  <object id="162" gid="499" x="4149" y="6787" width="550" height="550"/>
  <object id="163" gid="481" x="2005" y="6835" width="550" height="550"/>
  <object id="164" gid="505" x="2533" y="7595" width="550" height="550"/>
  <object id="165" gid="505" x="3013" y="7635" width="550" height="550"/>
  <object id="166" gid="505" x="693" y="7739" width="550" height="550"/>
  <object id="167" gid="505" x="845" y="7811" width="550" height="550"/>
  <object id="168" gid="505" x="1045" y="7891" width="550" height="550"/>
  <object id="169" gid="505" x="1229" y="7971" width="550" height="550"/>
  <object id="170" gid="505" x="1077" y="8051" width="550" height="550"/>
  <object id="171" gid="505" x="909" y="8147" width="550" height="550"/>
  <object id="172" gid="505" x="1085" y="8211" width="550" height="550"/>
  <object id="173" gid="507" x="6765" y="5507" width="550" height="550"/>
  <object id="174" gid="491" x="3301" y="1131" width="550" height="550">
   <properties>
    <property name="env_anim_type" value="tree"/>
   </properties>
  </object>
  <object id="175" gid="491" x="3757" y="1491" width="550" height="550">
   <properties>
    <property name="env_anim_type" value="tree"/>
   </properties>
  </object>
  <object id="176" gid="491" x="4421" y="1715" width="550" height="550">
   <properties>
    <property name="env_anim_type" value="tree"/>
   </properties>
  </object>
  <object id="177" gid="491" x="5405" y="1955" width="550" height="550">
   <properties>
    <property name="env_anim_type" value="tree"/>
   </properties>
  </object>
  <object id="178" gid="494" x="7453" y="5515" width="550" height="550"/>
  <object id="179" gid="488" x="3909" y="539" width="550" height="550"/>
  <object id="180" gid="474" x="6685" y="819" width="550" height="550"/>
  <object id="181" gid="474" x="6925" y="947" width="550" height="550"/>
  <object id="182" gid="474" x="7205" y="1099" width="550" height="550"/>
  <object id="183" gid="468" x="7301" y="2347" width="550" height="550"/>
  <object id="184" gid="468" x="7461" y="2459" width="550" height="550"/>
  <object id="185" gid="468" x="7645" y="2595" width="550" height="550"/>
  <object id="186" gid="468" x="7821" y="2771" width="550" height="550"/>
  <object id="187" gid="468" x="8061" y="2755" width="550" height="550"/>
  <object id="188" gid="468" x="8301" y="2675" width="550" height="550"/>
  <object id="189" gid="468" x="8557" y="2547" width="550" height="550"/>
  <object id="190" gid="468" x="8421" y="2355" width="550" height="550"/>
  <object id="191" gid="468" x="8237" y="2155" width="550" height="550"/>
  <object id="192" gid="468" x="8045" y="2107" width="550" height="550"/>
  <object id="193" gid="468" x="7909" y="2043" width="550" height="550"/>
  <object id="195" gid="489" x="4629" y="523" width="550" height="550"/>
  <object id="196" gid="495" x="5829" y="467" width="550" height="550"/>
  <object id="197" gid="497" x="3125" y="475" width="550" height="550"/>
  <object id="198" gid="497" x="7317" y="9443" width="550" height="550"/>
  <object id="199" gid="497" x="8229" y="9923" width="550" height="550"/>
  <object id="200" gid="492" x="6293" y="8491" width="550" height="550"/>
  <object id="201" gid="487" x="7029" y="8515" width="550" height="550"/>
  <object id="202" gid="487" x="7157" y="8579" width="550" height="550"/>
  <object id="203" gid="487" x="7301" y="8627" width="550" height="550"/>
  <object id="204" gid="487" x="7389" y="8683" width="550" height="550"/>
  <object id="205" gid="503" x="6509" y="9011" width="550" height="550"/>
  <object id="206" gid="469" x="5253" y="4715" width="550" height="550"/>
  <object id="207" gid="469" x="5461" y="4819" width="550" height="550"/>
  <object id="208" gid="469" x="5677" y="4939" width="550" height="550"/>
  <object id="209" gid="469" x="5893" y="5043" width="550" height="550"/>
  <object id="210" gid="473" x="3397" y="4219" width="550" height="550"/>
  <object id="211" gid="473" x="3917" y="4203" width="550" height="550"/>
  <object id="212" gid="473" x="4469" y="4211" width="550" height="550"/>
  <object id="213" gid="473" x="5021" y="4227" width="550" height="550"/>
  <object id="214" gid="473" x="5573" y="4219" width="550" height="550"/>
  <object id="215" gid="473" x="2804.4" y="4234.31" width="598.052" height="549.912" rotation="0.125503"/>
  <object id="216" gid="458" x="653" y="3651" width="550" height="550"/>
  <object id="217" gid="458" x="853" y="3747" width="550" height="550"/>
  <object id="218" gid="493" x="15709" y="5051" width="550" height="550"/>
  <object id="219" gid="493" x="14653" y="7867" width="550" height="550"/>
  <object id="220" gid="493" x="15181" y="6339" width="550" height="550"/>
  <object id="221" gid="464" x="14725" y="5731" width="550" height="550"/>
  <object id="222" gid="464" x="14597" y="6395" width="550" height="550"/>
  <object id="223" gid="464" x="14325" y="6995" width="550" height="550"/>
  <object id="224" gid="464" x="13637" y="7987" width="550" height="550"/>
  <object id="225" gid="464" x="15669" y="4291" width="550" height="550"/>
  <object id="382" gid="491" x="317" y="2477" width="550" height="550">
   <properties>
    <property name="env_anim_type" value="tree"/>
   </properties>
  </object>
  <object id="383" gid="491" x="253" y="2141" width="550" height="550">
   <properties>
    <property name="env_anim_type" value="tree"/>
   </properties>
  </object>
  <object id="384" gid="491" x="597" y="1261" width="726" height="646">
   <properties>
    <property name="env_anim_type" value="tree"/>
   </properties>
  </object>
  <object id="385" gid="491" x="237" y="1421" width="550" height="550">
   <properties>
    <property name="env_anim_type" value="tree"/>
   </properties>
  </object>
  <object id="386" gid="491" x="221" y="909" width="550" height="550">
   <properties>
    <property name="env_anim_type" value="tree"/>
   </properties>
  </object>
  <object id="387" gid="491" x="1053" y="477" width="550" height="550">
   <properties>
    <property name="env_anim_type" value="tree"/>
   </properties>
  </object>
  <object id="390" gid="491" x="1565" y="333" width="550" height="550">
   <properties>
    <property name="env_anim_type" value="tree"/>
   </properties>
  </object>
  <object id="391" gid="491" x="1869" y="589" width="550" height="550">
   <properties>
    <property name="env_anim_type" value="tree"/>
   </properties>
  </object>
  <object id="392" gid="491" x="2317" y="397" width="630" height="646">
   <properties>
    <property name="env_anim_type" value="tree"/>
   </properties>
  </object>
  <object id="393" gid="491" x="-131" y="1509" width="646" height="566">
   <properties>
    <property name="env_anim_type" value="tree"/>
   </properties>
  </object>
  <object id="394" gid="491" x="-83" y="2773" width="646" height="566">
   <properties>
    <property name="env_anim_type" value="tree"/>
   </properties>
  </object>
  <object id="395" gid="491" x="765" y="2853" width="646" height="566">
   <properties>
    <property name="env_anim_type" value="tree"/>
   </properties>
  </object>
  <object id="396" gid="491" x="3773" y="869" width="646" height="566">
   <properties>
    <property name="env_anim_type" value="tree"/>
   </properties>
  </object>
  <object id="462" gid="491" x="-59" y="2341" width="646" height="566">
   <properties>
    <property name="env_anim_type" value="tree"/>
   </properties>
  </object>
  <object id="463" gid="491" x="765" y="2373" width="646" height="566">
   <properties>
    <property name="env_anim_type" value="tree"/>
   </properties>
  </object>
  <object id="464" gid="491" x="501" y="2525" width="646" height="566">
   <properties>
    <property name="env_anim_type" value="tree"/>
   </properties>
  </object>
  <object id="465" gid="491" x="285" y="2861" width="646" height="566">
   <properties>
    <property name="env_anim_type" value="tree"/>
   </properties>
  </object>
  <object id="466" gid="491" x="341" y="2309" width="646" height="566">
   <properties>
    <property name="env_anim_type" value="tree"/>
   </properties>
  </object>
  <object id="467" gid="491" x="653" y="1909" width="646" height="566">
   <properties>
    <property name="env_anim_type" value="tree"/>
   </properties>
  </object>
  <object id="468" gid="491" x="653" y="1557" width="646" height="566">
   <properties>
    <property name="env_anim_type" value="tree"/>
   </properties>
  </object>
  <object id="469" gid="491" x="-123" y="1941" width="646" height="566">
   <properties>
    <property name="env_anim_type" value="tree"/>
   </properties>
  </object>
  <object id="470" gid="491" x="-123" y="1341" width="646" height="566">
   <properties>
    <property name="env_anim_type" value="tree"/>
   </properties>
  </object>
 </objectgroup>
 <objectgroup id="3" name="Slipery Layer">
  <properties>
   <property name="slippery_factor" type="float" value="3"/>
  </properties>
  <object id="34" x="2762.91" y="1852.12" width="1050.67" height="699.03">
   <properties>
    <property name="slippery_factor" type="float" value="50"/>
   </properties>
  </object>
  <object id="35" x="1281.94" y="726.182" width="890.909" height="758.061">
   <properties>
    <property name="slippery_factor" type="float" value="50"/>
   </properties>
   <ellipse/>
  </object>
  <object id="37" x="1680" y="732.242" width="890.909" height="758.061">
   <properties>
    <property name="slippery_factor" type="float" value="50"/>
   </properties>
   <ellipse/>
  </object>
  <object id="39" x="1584.73" y="1669.45" rotation="32">
   <polygon points="0,0 93.9394,84.8485 -9.09091,84.8485"/>
  </object>
  <object id="40" x="1716.48" y="2136.36" rotation="90">
   <polygon points="0,0 93.9394,-84.8485 -9.09091,-84.8485"/>
  </object>
  <object id="52" x="2386.55" y="1828.97" width="890.909" height="758.061">
   <properties>
    <property name="slippery_factor" type="float" value="50"/>
   </properties>
   <ellipse/>
  </object>
  <object id="53" x="1834.55" y="1268.97" width="890.909" height="758.061">
   <properties>
    <property name="slippery_factor" type="float" value="50"/>
   </properties>
   <ellipse/>
  </object>
  <object id="54" x="3322.55" y="1820.97" width="890.909" height="758.061">
   <properties>
    <property name="slippery_factor" type="float" value="50"/>
   </properties>
   <ellipse/>
  </object>
  <object id="55" x="5146.55" y="2932.97" width="890.909" height="758.061">
   <properties>
    <property name="slippery_factor" type="float" value="50"/>
   </properties>
   <ellipse/>
  </object>
  <object id="56" x="6210.66" y="3498.49" width="1634.67" height="699.03">
   <properties>
    <property name="slippery_factor" type="float" value="50"/>
   </properties>
  </object>
  <object id="57" x="3942.66" y="2402.49" width="2122.67" height="707.03">
   <properties>
    <property name="slippery_factor" type="float" value="50"/>
   </properties>
  </object>
  <object id="58" x="3482.55" y="2380.97" width="890.909" height="758.061">
   <properties>
    <property name="slippery_factor" type="float" value="50"/>
   </properties>
   <ellipse/>
  </object>
  <object id="59" x="5674.55" y="3468.97" width="890.909" height="758.061">
   <properties>
    <property name="slippery_factor" type="float" value="50"/>
   </properties>
   <ellipse/>
  </object>
  <object id="60" x="5518.66" y="2962.49" width="1634.67" height="699.03">
   <properties>
    <property name="slippery_factor" type="float" value="50"/>
   </properties>
  </object>
  <object id="61" x="6610.55" y="2924.97" width="890.909" height="758.061">
   <properties>
    <property name="slippery_factor" type="float" value="50"/>
   </properties>
   <ellipse/>
  </object>
  <object id="62" x="5530.55" y="2356.97" width="890.909" height="758.061">
   <properties>
    <property name="slippery_factor" type="float" value="50"/>
   </properties>
   <ellipse/>
  </object>
  <object id="63" x="2226.55" y="1268.97" width="890.909" height="758.061">
   <properties>
    <property name="slippery_factor" type="float" value="50"/>
   </properties>
   <ellipse/>
  </object>
  <object id="64" x="1884" y="1468">
   <polygon points="0,0 -132,16 -52,128"/>
  </object>
  <object id="65" x="2580" y="1172">
   <polygon points="0,0 -52,116 88,92"/>
  </object>
  <object id="66" x="3124" y="1704">
   <polygon points="0,0 -72,144 180,144 36,92"/>
  </object>
  <object id="67" x="3320" y="2560">
   <polygon points="0,0 232,-4 192,68 160,148 128,60 60,16"/>
  </object>
  <object id="68" x="2376" y="2156">
   <polygon points="0,0 36,-92 88,-148 84,-164 -4,-136 -84,-128 -60,-100 -20,-68 -4,-52"/>
  </object>
  <object id="70" x="4216" y="2236">
   <polygon points="0,0 48,92 148,144 172,160 -68,160 -24,84"/>
  </object>
  <object id="71" x="5212" y="3120">
   <polygon points="0,0 -228,-12 -116,48 -68,152 -68,192 -20,52"/>
  </object>
  <object id="72" x="6424" y="2816">
   <polygon points="0,0 -84,140 252,148 80,104"/>
  </object>
  <object id="73" x="5724" y="3676">
   <polygon points="0,0 -44,108 -160,-8"/>
  </object>
  <object id="74" x="7520" y="3332">
   <polygon points="0,0 -80,164 188,164 44,108"/>
  </object>
  <object id="77" x="6398.66" y="4802.49" width="6066.67" height="3243.03">
   <properties>
    <property name="slippery_factor" type="float" value="50"/>
   </properties>
  </object>
  <object id="78" x="10142.7" y="8034.49" width="2818.67" height="2923.03">
   <properties>
    <property name="slippery_factor" type="float" value="50"/>
   </properties>
  </object>
  <object id="79" x="9326.67" y="5482.49" width="3682.67" height="3675.03">
   <properties>
    <property name="slippery_factor" type="float" value="50"/>
   </properties>
  </object>
  <object id="80" x="7918.67" y="5418.49" width="2818.67" height="2923.03">
   <properties>
    <property name="slippery_factor" type="float" value="50"/>
   </properties>
  </object>
  <object id="244" x="3890.55" y="5140.97" width="890.909" height="758.061">
   <properties>
    <property name="slippery_factor" type="float" value="0.3"/>
   </properties>
   <ellipse/>
  </object>
  <object id="246" x="722.546" y="9540.97" width="890.909" height="758.061">
   <properties>
    <property name="slippery_factor" type="float" value="0.3"/>
   </properties>
   <ellipse/>
  </object>
  <object id="248" x="3890.55" y="10565" width="890.909" height="758.061">
   <properties>
    <property name="slippery_factor" type="float" value="0.3"/>
   </properties>
   <ellipse/>
  </object>
  <object id="249" x="1666.55" y="7332.97" width="890.909" height="758.061">
   <properties>
    <property name="slippery_factor" type="float" value="0.3"/>
   </properties>
   <ellipse/>
  </object>
  <object id="250" x="1554.55" y="7476.97" width="890.909" height="758.061">
   <properties>
    <property name="slippery_factor" type="float" value="0.3"/>
   </properties>
   <ellipse/>
  </object>
 </objectgroup>
 <objectgroup id="10" name="Heat Effect Layer">
  <properties>
   <property name="slippery_factor" type="float" value="3"/>
  </properties>
  <object id="96" x="2762.91" y="1852.12" width="1050.67" height="699.03">
   <properties>
    <property name="slippery_factor" type="float" value="50"/>
   </properties>
  </object>
  <object id="97" x="1281.94" y="726.182" width="890.909" height="758.061">
   <properties>
    <property name="slippery_factor" type="float" value="50"/>
   </properties>
   <ellipse/>
  </object>
  <object id="98" x="1680" y="732.242" width="890.909" height="758.061">
   <properties>
    <property name="slippery_factor" type="float" value="50"/>
   </properties>
   <ellipse/>
  </object>
  <object id="99" x="1584.73" y="1669.45" rotation="32">
   <polygon points="0,0 93.9394,84.8485 -9.09091,84.8485"/>
  </object>
  <object id="100" x="1716.48" y="2136.36" rotation="90">
   <polygon points="0,0 93.9394,-84.8485 -9.09091,-84.8485"/>
  </object>
  <object id="101" x="2386.55" y="1828.97" width="890.909" height="758.061">
   <properties>
    <property name="slippery_factor" type="float" value="50"/>
   </properties>
   <ellipse/>
  </object>
  <object id="102" x="1834.55" y="1268.97" width="890.909" height="758.061">
   <properties>
    <property name="slippery_factor" type="float" value="50"/>
   </properties>
   <ellipse/>
  </object>
  <object id="103" x="3322.55" y="1820.97" width="890.909" height="758.061">
   <properties>
    <property name="slippery_factor" type="float" value="50"/>
   </properties>
   <ellipse/>
  </object>
  <object id="104" x="5146.55" y="2932.97" width="890.909" height="758.061">
   <properties>
    <property name="slippery_factor" type="float" value="50"/>
   </properties>
   <ellipse/>
  </object>
  <object id="105" x="6210.66" y="3498.49" width="1634.67" height="699.03">
   <properties>
    <property name="slippery_factor" type="float" value="50"/>
   </properties>
  </object>
  <object id="106" x="3942.66" y="2402.49" width="2122.67" height="707.03">
   <properties>
    <property name="slippery_factor" type="float" value="50"/>
   </properties>
  </object>
  <object id="107" x="3482.55" y="2380.97" width="890.909" height="758.061">
   <properties>
    <property name="slippery_factor" type="float" value="50"/>
   </properties>
   <ellipse/>
  </object>
  <object id="108" x="5674.55" y="3468.97" width="890.909" height="758.061">
   <properties>
    <property name="slippery_factor" type="float" value="50"/>
   </properties>
   <ellipse/>
  </object>
  <object id="109" x="5518.66" y="2962.49" width="1634.67" height="699.03">
   <properties>
    <property name="slippery_factor" type="float" value="50"/>
   </properties>
  </object>
  <object id="110" x="6610.55" y="2924.97" width="890.909" height="758.061">
   <properties>
    <property name="slippery_factor" type="float" value="3"/>
   </properties>
   <ellipse/>
  </object>
  <object id="111" x="5530.55" y="2356.97" width="890.909" height="758.061">
   <properties>
    <property name="slippery_factor" type="float" value="50"/>
   </properties>
   <ellipse/>
  </object>
  <object id="112" x="2226.55" y="1268.97" width="890.909" height="758.061">
   <properties>
    <property name="slippery_factor" type="float" value="50"/>
   </properties>
   <ellipse/>
  </object>
  <object id="113" x="1884" y="1468">
   <polygon points="0,0 -132,16 -52,128"/>
  </object>
  <object id="114" x="2580" y="1172">
   <polygon points="0,0 -52,116 88,92"/>
  </object>
  <object id="115" x="3124" y="1704">
   <polygon points="0,0 -72,144 180,144 36,92"/>
  </object>
  <object id="116" x="3320" y="2560">
   <polygon points="0,0 232,-4 192,68 160,148 128,60 60,16"/>
  </object>
  <object id="117" x="2376" y="2156">
   <polygon points="0,0 36,-92 88,-148 84,-164 -4,-136 -84,-128 -60,-100 -20,-68 -4,-52"/>
  </object>
  <object id="118" x="4216" y="2236">
   <polygon points="0,0 48,92 148,144 172,160 -68,160 -24,84"/>
  </object>
  <object id="119" x="5212" y="3120">
   <polygon points="0,0 -228,-12 -116,48 -68,152 -68,192 -20,52"/>
  </object>
  <object id="120" x="6424" y="2816">
   <polygon points="0,0 -84,140 252,148 80,104"/>
  </object>
  <object id="121" x="5724" y="3676">
   <polygon points="0,0 -44,108 -160,-8"/>
  </object>
  <object id="122" x="7520" y="3332">
   <polygon points="0,0 -80,164 188,164 44,108"/>
  </object>
  <object id="123" x="6398.66" y="4802.49" width="6066.67" height="3243.03">
   <properties>
    <property name="slippery_factor" type="float" value="50"/>
   </properties>
  </object>
  <object id="124" x="10142.7" y="8034.49" width="2818.67" height="2923.03">
   <properties>
    <property name="slippery_factor" type="float" value="50"/>
   </properties>
  </object>
  <object id="125" x="9326.67" y="5482.49" width="3682.67" height="3675.03">
   <properties>
    <property name="slippery_factor" type="float" value="50"/>
   </properties>
  </object>
  <object id="126" x="7918.67" y="5418.49" width="2818.67" height="2923.03">
   <properties>
    <property name="slippery_factor" type="float" value="50"/>
   </properties>
  </object>
  <object id="151" x="2940.55" y="5118.95" width="890.909" height="758.061">
   <properties>
    <property name="heat" type="float" value="100"/>
   </properties>
   <ellipse/>
  </object>
  <object id="152" x="3881.55" y="5182.95" width="890.909" height="758.061">
   <properties>
    <property name="heat" type="float" value="100"/>
   </properties>
   <ellipse/>
  </object>
  <object id="153" x="1828.55" y="6190.95" width="890.909" height="758.061">
   <properties>
    <property name="heat" type="float" value="100"/>
   </properties>
   <ellipse/>
  </object>
  <object id="154" x="708.544" y="5134.95" width="890.909" height="758.061">
   <properties>
    <property name="heat" type="float" value="100"/>
   </properties>
   <ellipse/>
  </object>
  <object id="155" x="756.55" y="7318.95" width="890.909" height="758.061">
   <properties>
    <property name="heat" type="float" value="100"/>
   </properties>
   <ellipse/>
  </object>
  <object id="156" x="732.544" y="9534.95" width="890.909" height="758.061">
   <properties>
    <property name="heat" type="float" value="100"/>
   </properties>
   <ellipse/>
  </object>
  <object id="157" x="3900.55" y="10559" width="890.909" height="758.061">
   <properties>
    <property name="slippery_factor" type="float" value="0.3"/>
   </properties>
   <ellipse/>
  </object>
  <object id="158" x="3868.55" y="5694.95" width="890.909" height="758.061">
   <properties>
    <property name="heat" type="float" value="100"/>
   </properties>
   <ellipse/>
  </object>
  <object id="159" x="4444.55" y="5702.95" width="890.909" height="758.061">
   <properties>
    <property name="heat" type="float" value="100"/>
   </properties>
   <ellipse/>
  </object>
  <object id="160" x="3100.55" y="5662.95" width="890.909" height="758.061">
   <properties>
    <property name="heat" type="float" value="100"/>
   </properties>
   <ellipse/>
  </object>
  <object id="227" x="14186.5" y="3820.97" width="1090.91" height="1198.06">
   <properties>
    <property name="slippery_factor" type="float" value="0.1"/>
   </properties>
   <ellipse/>
  </object>
  <object id="230" x="13670.5" y="4960.97" width="1090.91" height="1198.06">
   <properties>
    <property name="slippery_factor" type="float" value="0.05"/>
   </properties>
   <ellipse/>
  </object>
  <object id="231" x="13230.5" y="5824.97" width="1090.91" height="1198.06">
   <properties>
    <property name="slippery_factor" type="float" value="0.1"/>
   </properties>
   <ellipse/>
  </object>
  <object id="232" x="13918.5" y="7584.97" width="1090.91" height="1198.06">
   <properties>
    <property name="slippery_factor" type="float" value="0.3"/>
   </properties>
   <ellipse/>
  </object>
  <object id="247" x="3890.55" y="10549" width="890.909" height="758.061">
   <properties>
    <property name="heat" type="float" value="100"/>
   </properties>
   <ellipse/>
  </object>
  <object id="251" x="1842.55" y="6228.97" width="890.909" height="758.061">
   <properties>
    <property name="heat" type="float" value="100"/>
   </properties>
   <ellipse/>
  </object>
  <object id="252" x="2386.55" y="5652.97" width="890.909" height="758.061">
   <properties>
    <property name="heat" type="float" value="100"/>
   </properties>
   <ellipse/>
  </object>
  <object id="253" x="3186.55" y="5636.97" width="890.909" height="758.061">
   <properties>
    <property name="heat" type="float" value="100"/>
   </properties>
   <ellipse/>
  </object>
  <object id="254" x="3890.55" y="5716.97" width="890.909" height="758.061">
   <properties>
    <property name="heat" type="float" value="100"/>
   </properties>
   <ellipse/>
  </object>
  <object id="369" x="5122.55" y="10069" width="794.909" height="742.061">
   <properties>
    <property name="slippery_factor" type="float" value="0.3"/>
   </properties>
   <ellipse/>
  </object>
  <object id="370" x="4482.55" y="7868.97" width="794.909" height="742.061">
   <properties>
    <property name="slippery_factor" type="float" value="0.3"/>
   </properties>
   <ellipse/>
  </object>
  <object id="371" x="5074.55" y="8428.97" width="794.909" height="742.061">
   <properties>
    <property name="slippery_factor" type="float" value="0.3"/>
   </properties>
   <ellipse/>
  </object>
  <object id="372" x="5106.55" y="8924.97" width="794.909" height="742.061">
   <properties>
    <property name="slippery_factor" type="float" value="0.3"/>
   </properties>
   <ellipse/>
  </object>
  <object id="373" x="4018.55" y="8924.97" width="794.909" height="742.061">
   <properties>
    <property name="slippery_factor" type="float" value="0.3"/>
   </properties>
   <ellipse/>
  </object>
  <object id="374" x="2338.55" y="9516.97" width="794.909" height="742.061">
   <properties>
    <property name="slippery_factor" type="float" value="0.3"/>
   </properties>
   <ellipse/>
  </object>
  <object id="375" x="3426.55" y="10029" width="794.909" height="742.061">
   <properties>
    <property name="slippery_factor" type="float" value="0.3"/>
   </properties>
   <ellipse/>
  </object>
  <object id="376" x="2386.55" y="10061" width="794.909" height="742.061">
   <properties>
    <property name="slippery_factor" type="float" value="0.3"/>
   </properties>
   <ellipse/>
  </object>
  <object id="377" x="2866.55" y="7292.97" width="794.909" height="742.061">
   <properties>
    <property name="slippery_factor" type="float" value="0.3"/>
   </properties>
   <ellipse/>
  </object>
  <object id="378" x="2418.55" y="8348.97" width="794.909" height="742.061">
   <properties>
    <property name="slippery_factor" type="float" value="0.3"/>
   </properties>
   <ellipse/>
  </object>
  <object id="379" x="738.546" y="5148.97" width="794.909" height="742.061">
   <properties>
    <property name="slippery_factor" type="float" value="0.3"/>
   </properties>
   <ellipse/>
  </object>
  <object id="380" x="1730.55" y="5180.97" width="794.909" height="742.061">
   <properties>
    <property name="slippery_factor" type="float" value="0.3"/>
   </properties>
   <ellipse/>
  </object>
  <object id="381" x="3954.55" y="5140.97" width="794.909" height="742.061">
   <properties>
    <property name="slippery_factor" type="float" value="0.3"/>
   </properties>
   <ellipse/>
  </object>
  <object id="397" x="4034.55" y="8916.97" width="794.909" height="774.061">
   <properties>
    <property name="heat" type="float" value="100"/>
   </properties>
   <ellipse/>
  </object>
  <object id="398" x="2426.55" y="8340.97" width="794.909" height="774.061">
   <properties>
    <property name="heat" type="float" value="100"/>
   </properties>
   <ellipse/>
  </object>
  <object id="399" x="1554.55" y="7484.97" width="794.909" height="774.061">
   <properties>
    <property name="heat" type="float" value="100"/>
   </properties>
   <ellipse/>
  </object>
  <object id="400" x="1730.55" y="7332.97" width="794.909" height="774.061">
   <properties>
    <property name="heat" type="float" value="100"/>
   </properties>
   <ellipse/>
  </object>
  <object id="401" x="754.545" y="7316.97" width="794.909" height="774.061">
   <properties>
    <property name="heat" type="float" value="100"/>
   </properties>
   <ellipse/>
  </object>
  <object id="402" x="882.546" y="7228.97" width="794.909" height="774.061">
   <properties>
    <property name="heat" type="float" value="100"/>
   </properties>
   <ellipse/>
  </object>
  <object id="403" x="1714.55" y="5180.97" width="890.909" height="758.061">
   <properties>
    <property name="heat" type="float" value="100"/>
   </properties>
   <ellipse/>
  </object>
  <object id="404" x="1770.55" y="5116.97" width="890.909" height="758.061">
   <properties>
    <property name="heat" type="float" value="100"/>
   </properties>
   <ellipse/>
  </object>
  <object id="405" x="4490.55" y="5716.97" width="794.909" height="742.061">
   <properties>
    <property name="slippery_factor" type="float" value="0.3"/>
   </properties>
   <ellipse/>
  </object>
  <object id="406" x="2970.55" y="5108.97" width="794.909" height="742.061">
   <properties>
    <property name="slippery_factor" type="float" value="0.3"/>
   </properties>
   <ellipse/>
  </object>
  <object id="407" x="3930.55" y="5692.97" width="794.909" height="742.061">
   <properties>
    <property name="slippery_factor" type="float" value="0.3"/>
   </properties>
   <ellipse/>
  </object>
  <object id="408" x="3178.55" y="5684.97" width="794.909" height="742.061">
   <properties>
    <property name="slippery_factor" type="float" value="0.3"/>
   </properties>
   <ellipse/>
  </object>
  <object id="409" x="4482.55" y="7860.97" width="794.909" height="742.061">
   <properties>
    <property name="slippery_factor" type="float" value="0.3"/>
   </properties>
   <ellipse/>
  </object>
  <object id="410" x="5082.55" y="8420.97" width="794.909" height="742.061">
   <properties>
    <property name="slippery_factor" type="float" value="0.3"/>
   </properties>
   <ellipse/>
  </object>
  <object id="411" x="5122.55" y="8932.97" width="794.909" height="742.061">
   <properties>
    <property name="slippery_factor" type="float" value="0.3"/>
   </properties>
   <ellipse/>
  </object>
  <object id="412" x="4026.55" y="8924.97" width="794.909" height="742.061">
   <properties>
    <property name="slippery_factor" type="float" value="0.3"/>
   </properties>
   <ellipse/>
  </object>
  <object id="413" x="3442.55" y="10021" width="794.909" height="742.061">
   <properties>
    <property name="slippery_factor" type="float" value="0.3"/>
   </properties>
   <ellipse/>
  </object>
 </objectgroup>
 <objectgroup id="12" name="spawner">
  <object id="255" gid="499" x="1421" y="5059" width="550" height="550">
   <properties>
    <property name="spawner_config" value="{&quot;enemy_spawn_weights&quot;:{&quot;squid&quot;:1,&quot;tribey_snake&quot;:1,&quot;raccoon&quot;:1,&quot;spirit&quot;:1,&quot;bamboo&quot;:1,&quot;ice_ghost&quot;:1,&quot;tribey_spear&quot;:1,&quot;demon_dog&quot;:1,&quot;venom_plant&quot;:1,&quot;ice_mage&quot;:1},&quot;spawn_type&quot;:&quot;random_weights&quot;,&quot;frequency&quot;:2000,&quot;spawn_number&quot;:3,&quot;spawn_limit&quot;:50}"/>
   </properties>
  </object>
  <object id="256" gid="499" x="4733" y="7571" width="550" height="550">
   <properties>
    <property name="spawner_config" value="{&quot;enemy_spawn_weights&quot;:{&quot;squid&quot;:1,&quot;tribey_snake&quot;:1,&quot;raccoon&quot;:1,&quot;spirit&quot;:1,&quot;bamboo&quot;:1,&quot;ice_ghost&quot;:1,&quot;tribey_spear&quot;:1,&quot;demon_dog&quot;:1,&quot;venom_plant&quot;:1,&quot;ice_mage&quot;:1},&quot;spawn_type&quot;:&quot;random_weights&quot;,&quot;frequency&quot;:8,&quot;spawn_number&quot;:5,&quot;spawn_limit&quot;:200}"/>
   </properties>
  </object>
  <object id="282" gid="499" x="15085" y="7117" width="550" height="550">
   <properties>
    <property name="spawner_config" value="{&quot;enemy_spawn_weights&quot;:{&quot;squid&quot;:1,&quot;tribey_snake&quot;:1,&quot;raccoon&quot;:1,&quot;spirit&quot;:1,&quot;bamboo&quot;:1,&quot;ice_ghost&quot;:1,&quot;tribey_spear&quot;:1,&quot;demon_dog&quot;:1,&quot;venom_plant&quot;:1,&quot;ice_mage&quot;:1},&quot;spawn_type&quot;:&quot;random_weights&quot;,&quot;frequency&quot;:8,&quot;spawn_number&quot;:5,&quot;spawn_limit&quot;:200}"/>
   </properties>
  </object>
 </objectgroup>
 <objectgroup id="14" name="grass1">
  <object id="273" gid="500" x="13805" y="10227" width="550" height="550">
   <properties>
    <property name="grass_profile" value="default"/>
   </properties>
  </object>
  <object id="274" gid="500" x="14381" y="10221" width="550" height="550">
   <properties>
    <property name="grass_profile" value="default"/>
   </properties>
  </object>
  <object id="275" gid="500" x="14973" y="10221" width="550" height="550">
   <properties>
    <property name="grass_profile" value="default"/>
   </properties>
  </object>
  <object id="276" gid="500" x="14941" y="10797" width="550" height="550">
   <properties>
    <property name="grass_profile" value="default"/>
   </properties>
  </object>
  <object id="277" gid="500" x="14381" y="9629" width="550" height="550">
   <properties>
    <property name="grass_profile" value="default"/>
   </properties>
  </object>
  <object id="278" gid="500" x="14989" y="9629" width="550" height="550">
   <properties>
    <property name="grass_profile" value="default"/>
   </properties>
  </object>
  <object id="279" gid="500" x="14365" y="10781" width="550" height="550">
   <properties>
    <property name="grass_profile" value="default"/>
   </properties>
  </object>
  <object id="280" gid="500" x="15549" y="10221" width="550" height="550">
   <properties>
    <property name="grass_profile" value="default"/>
   </properties>
  </object>
  <object id="281" gid="500" x="13197" y="10205" width="550" height="550">
   <properties>
    <property name="grass_profile" value="default"/>
   </properties>
  </object>
  <object id="283" gid="500" x="15581" y="9645" width="550" height="550">
   <properties>
    <property name="grass_profile" value="default"/>
   </properties>
  </object>
  <object id="284" gid="500" x="13789" y="9661" width="550" height="550">
   <properties>
    <property name="grass_profile" value="default"/>
   </properties>
  </object>
  <object id="285" gid="500" x="13821" y="9069" width="550" height="550">
   <properties>
    <property name="grass_profile" value="default"/>
   </properties>
  </object>
  <object id="286" gid="500" x="14413" y="9053" width="550" height="550">
   <properties>
    <property name="grass_profile" value="default"/>
   </properties>
  </object>
  <object id="287" gid="500" x="14989" y="9069" width="550" height="550">
   <properties>
    <property name="grass_profile" value="default"/>
   </properties>
  </object>
  <object id="288" gid="500" x="15549" y="9069" width="550" height="550">
   <properties>
    <property name="grass_profile" value="default"/>
   </properties>
  </object>
  <object id="289" gid="500" x="15549" y="8477" width="550" height="550">
   <properties>
    <property name="grass_profile" value="default"/>
   </properties>
  </object>
  <object id="290" gid="500" x="14989" y="8445" width="550" height="550">
   <properties>
    <property name="grass_profile" value="default"/>
   </properties>
  </object>
  <object id="299" gid="500" x="13836.3" y="8523.65" width="550" height="550" rotation="0.0348643">
   <properties>
    <property name="grass_profile" value="big"/>
   </properties>
  </object>
  <object id="300" gid="500" x="13852.7" y="7931.66" width="550" height="550" rotation="0.0348643">
   <properties>
    <property name="grass_profile" value="big"/>
   </properties>
  </object>
  <object id="301" gid="500" x="14412.3" y="8524" width="550" height="550" rotation="0.0348643">
   <properties>
    <property name="grass_profile" value="big"/>
   </properties>
  </object>
  <object id="302" gid="500" x="15308.6" y="7900.02" width="550" height="550" rotation="0.0348643">
   <properties>
    <property name="grass_profile" value="default"/>
   </properties>
  </object>
  <object id="303" gid="500" x="13853" y="7371.66" width="550" height="550" rotation="0.0348643">
   <properties>
    <property name="grass_profile" value="big"/>
   </properties>
  </object>
  <object id="304" gid="500" x="14413" y="7372" width="550" height="550" rotation="0.0348643">
   <properties>
    <property name="grass_profile" value="big"/>
   </properties>
  </object>
  <object id="305" gid="500" x="14413.4" y="6780" width="550" height="550" rotation="0.0348643">
   <properties>
    <property name="grass_profile" value="big"/>
   </properties>
  </object>
  <object id="306" gid="500" x="13853.4" y="6747.66" width="550" height="550" rotation="0.0348643">
   <properties>
    <property name="grass_profile" value="big"/>
   </properties>
  </object>
  <object id="307" gid="500" x="15693" y="7333" width="550" height="550">
   <properties>
    <property name="grass_profile" value="default"/>
   </properties>
  </object>
  <object id="308" gid="500" x="15709" y="6741" width="550" height="550">
   <properties>
    <property name="grass_profile" value="default"/>
   </properties>
  </object>
  <object id="309" gid="500" x="16269" y="7333" width="550" height="550">
   <properties>
    <property name="grass_profile" value="big"/>
   </properties>
  </object>
  <object id="310" gid="500" x="16301" y="6757" width="550" height="550">
   <properties>
    <property name="grass_profile" value="big"/>
   </properties>
  </object>
  <object id="311" gid="500" x="15709" y="6181" width="550" height="550">
   <properties>
    <property name="grass_profile" value="default"/>
   </properties>
  </object>
  <object id="312" gid="500" x="16269" y="6181" width="550" height="550">
   <properties>
    <property name="grass_profile" value="big"/>
   </properties>
  </object>
  <object id="313" gid="500" x="16269" y="5589" width="550" height="550">
   <properties>
    <property name="grass_profile" value="big"/>
   </properties>
  </object>
  <object id="314" gid="500" x="15709" y="5557" width="550" height="550">
   <properties>
    <property name="grass_profile" value="default"/>
   </properties>
  </object>
  <object id="315" gid="500" x="15085" y="4997" width="550" height="550">
   <properties>
    <property name="grass_profile" value="default"/>
   </properties>
  </object>
  <object id="316" gid="500" x="15101" y="4405" width="550" height="550">
   <properties>
    <property name="grass_profile" value="default"/>
   </properties>
  </object>
  <object id="318" gid="500" x="15693" y="4421" width="550" height="550">
   <properties>
    <property name="grass_profile" value="default"/>
   </properties>
  </object>
  <object id="319" gid="500" x="15101" y="3845" width="550" height="550">
   <properties>
    <property name="grass_profile" value="default"/>
   </properties>
  </object>
  <object id="320" gid="500" x="15661" y="3845" width="550" height="550">
   <properties>
    <property name="grass_profile" value="default"/>
   </properties>
  </object>
  <object id="321" gid="500" x="15661" y="3253" width="550" height="550">
   <properties>
    <property name="grass_profile" value="default"/>
   </properties>
  </object>
  <object id="322" gid="500" x="15101" y="3221" width="550" height="550">
   <properties>
    <property name="grass_profile" value="default"/>
   </properties>
  </object>
  <object id="323" gid="500" x="11117" y="3610" width="550" height="550">
   <properties>
    <property name="grass_profile" value="default"/>
   </properties>
  </object>
  <object id="324" gid="500" x="11085" y="3117" width="550" height="550">
   <properties>
    <property name="grass_profile" value="default"/>
   </properties>
  </object>
  <object id="325" gid="500" x="11085" y="2557" width="550" height="550">
   <properties>
    <property name="grass_profile" value="default"/>
   </properties>
  </object>
  <object id="326" gid="500" x="11085" y="1981" width="550" height="550">
   <properties>
    <property name="grass_profile" value="default"/>
   </properties>
  </object>
  <object id="327" gid="500" x="11101" y="1165" width="550" height="550">
   <properties>
    <property name="grass_profile" value="default"/>
   </properties>
  </object>
  <object id="328" gid="500" x="11677" y="1165" width="550" height="550">
   <properties>
    <property name="grass_profile" value="default"/>
   </properties>
  </object>
  <object id="329" gid="500" x="11661" y="2013" width="550" height="550">
   <properties>
    <property name="grass_profile" value="default"/>
   </properties>
  </object>
  <object id="330" gid="500" x="11661" y="2557" width="550" height="550">
   <properties>
    <property name="grass_profile" value="default"/>
   </properties>
  </object>
  <object id="331" gid="500" x="11677" y="3101" width="550" height="550">
   <properties>
    <property name="grass_profile" value="default"/>
   </properties>
  </object>
  <object id="332" gid="500" x="11677" y="3613" width="550" height="550">
   <properties>
    <property name="grass_profile" value="default"/>
   </properties>
  </object>
  <object id="333" gid="500" x="9701" y="3610" width="550" height="550">
   <properties>
    <property name="grass_profile" value="default"/>
   </properties>
  </object>
  <object id="334" gid="500" x="9669" y="3117" width="550" height="550">
   <properties>
    <property name="grass_profile" value="default"/>
   </properties>
  </object>
  <object id="335" gid="500" x="9669" y="2557" width="550" height="550">
   <properties>
    <property name="grass_profile" value="default"/>
   </properties>
  </object>
  <object id="336" gid="500" x="9669" y="1981" width="550" height="550">
   <properties>
    <property name="grass_profile" value="default"/>
   </properties>
  </object>
  <object id="337" gid="500" x="9669" y="1437" width="550" height="550">
   <properties>
    <property name="grass_profile" value="default"/>
   </properties>
  </object>
  <object id="338" gid="500" x="10245" y="1437" width="550" height="550">
   <properties>
    <property name="grass_profile" value="default"/>
   </properties>
  </object>
  <object id="339" gid="500" x="10245" y="2013" width="550" height="550">
   <properties>
    <property name="grass_profile" value="default"/>
   </properties>
  </object>
  <object id="340" gid="500" x="10245" y="2557" width="550" height="550">
   <properties>
    <property name="grass_profile" value="default"/>
   </properties>
  </object>
  <object id="341" gid="500" x="10261" y="3101" width="550" height="550">
   <properties>
    <property name="grass_profile" value="default"/>
   </properties>
  </object>
  <object id="342" gid="500" x="10261" y="3613" width="550" height="550">
   <properties>
    <property name="grass_profile" value="default"/>
   </properties>
  </object>
  <object id="343" gid="500" x="8515" y="3610" width="550" height="550">
   <properties>
    <property name="grass_profile" value="default"/>
   </properties>
  </object>
  <object id="344" gid="500" x="8483" y="3117" width="550" height="550">
   <properties>
    <property name="grass_profile" value="default"/>
   </properties>
  </object>
  <object id="345" gid="500" x="8483" y="2557" width="550" height="550">
   <properties>
    <property name="grass_profile" value="default"/>
   </properties>
  </object>
  <object id="346" gid="500" x="8483" y="1981" width="550" height="550">
   <properties>
    <property name="grass_profile" value="default"/>
   </properties>
  </object>
  <object id="347" gid="500" x="8483" y="1437" width="550" height="550">
   <properties>
    <property name="grass_profile" value="default"/>
   </properties>
  </object>
  <object id="348" gid="500" x="9059" y="1437" width="550" height="550">
   <properties>
    <property name="grass_profile" value="default"/>
   </properties>
  </object>
  <object id="349" gid="500" x="9059" y="2013" width="550" height="550">
   <properties>
    <property name="grass_profile" value="default"/>
   </properties>
  </object>
  <object id="350" gid="500" x="9059" y="2557" width="550" height="550">
   <properties>
    <property name="grass_profile" value="default"/>
   </properties>
  </object>
  <object id="351" gid="500" x="9075" y="3101" width="550" height="550">
   <properties>
    <property name="grass_profile" value="default"/>
   </properties>
  </object>
  <object id="352" gid="500" x="9075" y="3613" width="550" height="550">
   <properties>
    <property name="grass_profile" value="default"/>
   </properties>
  </object>
  <object id="353" gid="500" x="12292.6" y="3619.85" width="542.294" height="542.294">
   <properties>
    <property name="grass_profile" value="default"/>
   </properties>
  </object>
  <object id="354" gid="500" x="12261" y="3133.76" width="542.294" height="542.294">
   <properties>
    <property name="grass_profile" value="default"/>
   </properties>
  </object>
  <object id="355" gid="500" x="12261" y="2581.6" width="542.294" height="542.294">
   <properties>
    <property name="grass_profile" value="default"/>
   </properties>
  </object>
  <object id="356" gid="500" x="12261" y="2013.67" width="542.294" height="542.294">
   <properties>
    <property name="grass_profile" value="default"/>
   </properties>
  </object>
  <object id="357" gid="500" x="12277" y="1205.29" width="542.294" height="542.294">
   <properties>
    <property name="grass_profile" value="default"/>
   </properties>
  </object>
  <object id="358" gid="500" x="12844.9" y="1205.29" width="542.294" height="542.294">
   <properties>
    <property name="grass_profile" value="default"/>
   </properties>
  </object>
  <object id="359" gid="500" x="12828.9" y="2045.22" width="542.294" height="542.294">
   <properties>
    <property name="grass_profile" value="default"/>
   </properties>
  </object>
  <object id="360" gid="500" x="12828.9" y="2581.6" width="542.294" height="542.294">
   <properties>
    <property name="grass_profile" value="default"/>
   </properties>
  </object>
  <object id="361" gid="500" x="12844.7" y="3117.98" width="542.294" height="542.294">
   <properties>
    <property name="grass_profile" value="default"/>
   </properties>
  </object>
  <object id="362" gid="500" x="12844.7" y="3622.81" width="542.294" height="542.294">
   <properties>
    <property name="grass_profile" value="default"/>
   </properties>
  </object>
  <object id="363" gid="500" x="13648.9" y="2048.85" width="542.294" height="542.294">
   <properties>
    <property name="grass_profile" value="default"/>
   </properties>
  </object>
  <object id="364" gid="500" x="13664.9" y="2608.85" width="542.294" height="542.294">
   <properties>
    <property name="grass_profile" value="default"/>
   </properties>
  </object>
  <object id="365" gid="500" x="14592.9" y="2240.85" width="542.294" height="542.294">
   <properties>
    <property name="grass_profile" value="default"/>
   </properties>
  </object>
  <object id="366" gid="500" x="14608.9" y="1696.85" width="542.294" height="542.294">
   <properties>
    <property name="grass_profile" value="default"/>
   </properties>
  </object>
  <object id="367" gid="500" x="15168.9" y="1664.85" width="542.294" height="542.294">
   <properties>
    <property name="grass_profile" value="default"/>
   </properties>
  </object>
  <object id="368" gid="500" x="15152.9" y="2256.85" width="542.294" height="542.294">
   <properties>
    <property name="grass_profile" value="default"/>
   </properties>
  </object>
  <object id="414" gid="500" x="8709" y="197" width="550" height="550" rotation="0.0348643">
   <properties>
    <property name="grass_profile" value="big"/>
   </properties>
  </object>
  <object id="415" gid="500" x="9261" y="197" width="550" height="550" rotation="0.0348643">
   <properties>
    <property name="grass_profile" value="big"/>
   </properties>
  </object>
  <object id="416" gid="500" x="9837" y="197" width="550" height="550" rotation="0.0348643">
   <properties>
    <property name="grass_profile" value="big"/>
   </properties>
  </object>
  <object id="417" gid="500" x="10397" y="205" width="550" height="550" rotation="0.0348643">
   <properties>
    <property name="grass_profile" value="big"/>
   </properties>
  </object>
  <object id="418" gid="500" x="8721" y="-359" width="550" height="550" rotation="0.0348643">
   <properties>
    <property name="grass_profile" value="big"/>
   </properties>
  </object>
  <object id="419" gid="500" x="9273" y="-359" width="550" height="550" rotation="0.0348643">
   <properties>
    <property name="grass_profile" value="big"/>
   </properties>
  </object>
  <object id="420" gid="500" x="9849" y="-359" width="550" height="550" rotation="0.0348643">
   <properties>
    <property name="grass_profile" value="big"/>
   </properties>
  </object>
  <object id="421" gid="500" x="10409" y="-351" width="550" height="550" rotation="0.0348643">
   <properties>
    <property name="grass_profile" value="big"/>
   </properties>
  </object>
  <object id="422" gid="500" x="8737" y="-903" width="550" height="550" rotation="0.0348643">
   <properties>
    <property name="grass_profile" value="big"/>
   </properties>
  </object>
  <object id="423" gid="500" x="9289" y="-903" width="550" height="550" rotation="0.0348643">
   <properties>
    <property name="grass_profile" value="big"/>
   </properties>
  </object>
  <object id="424" gid="500" x="9865" y="-903" width="550" height="550" rotation="0.0348643">
   <properties>
    <property name="grass_profile" value="big"/>
   </properties>
  </object>
  <object id="425" gid="500" x="10425" y="-895" width="550" height="550" rotation="0.0348643">
   <properties>
    <property name="grass_profile" value="big"/>
   </properties>
  </object>
  <object id="426" gid="500" x="11067" y="3071" width="550" height="550" rotation="0.0348643">
   <properties>
    <property name="grass_profile" value="big"/>
   </properties>
  </object>
  <object id="427" gid="500" x="11619" y="3071" width="550" height="550" rotation="0.0348643">
   <properties>
    <property name="grass_profile" value="big"/>
   </properties>
  </object>
  <object id="428" gid="500" x="12195" y="3071" width="550" height="550" rotation="0.0348643">
   <properties>
    <property name="grass_profile" value="big"/>
   </properties>
  </object>
  <object id="429" gid="500" x="12755" y="3079" width="550" height="550" rotation="0.0348643">
   <properties>
    <property name="grass_profile" value="big"/>
   </properties>
  </object>
  <object id="430" gid="500" x="11079" y="2515" width="550" height="550" rotation="0.0348643">
   <properties>
    <property name="grass_profile" value="big"/>
   </properties>
  </object>
  <object id="431" gid="500" x="11631" y="2515" width="550" height="550" rotation="0.0348643">
   <properties>
    <property name="grass_profile" value="big"/>
   </properties>
  </object>
  <object id="432" gid="500" x="12207" y="2515" width="550" height="550" rotation="0.0348643">
   <properties>
    <property name="grass_profile" value="big"/>
   </properties>
  </object>
  <object id="433" gid="500" x="12767" y="2523" width="550" height="550" rotation="0.0348643">
   <properties>
    <property name="grass_profile" value="big"/>
   </properties>
  </object>
  <object id="434" gid="500" x="11095" y="1971" width="550" height="550" rotation="0.0348643">
   <properties>
    <property name="grass_profile" value="big"/>
   </properties>
  </object>
  <object id="435" gid="500" x="11647" y="1971" width="550" height="550" rotation="0.0348643">
   <properties>
    <property name="grass_profile" value="big"/>
   </properties>
  </object>
  <object id="436" gid="500" x="12223" y="1971" width="550" height="550" rotation="0.0348643">
   <properties>
    <property name="grass_profile" value="big"/>
   </properties>
  </object>
  <object id="437" gid="500" x="12783" y="1979" width="550" height="550" rotation="0.0348643">
   <properties>
    <property name="grass_profile" value="big"/>
   </properties>
  </object>
  <object id="438" gid="500" x="8547" y="3095" width="550" height="550" rotation="0.0348643">
   <properties>
    <property name="grass_profile" value="big"/>
   </properties>
  </object>
  <object id="439" gid="500" x="9099" y="3095" width="550" height="550" rotation="0.0348643">
   <properties>
    <property name="grass_profile" value="big"/>
   </properties>
  </object>
  <object id="440" gid="500" x="9675" y="3095" width="550" height="550" rotation="0.0348643">
   <properties>
    <property name="grass_profile" value="big"/>
   </properties>
  </object>
  <object id="441" gid="500" x="10235" y="3103" width="550" height="550" rotation="0.0348643">
   <properties>
    <property name="grass_profile" value="big"/>
   </properties>
  </object>
  <object id="442" gid="500" x="8559" y="2539" width="550" height="550" rotation="0.0348643">
   <properties>
    <property name="grass_profile" value="big"/>
   </properties>
  </object>
  <object id="443" gid="500" x="9111" y="2539" width="550" height="550" rotation="0.0348643">
   <properties>
    <property name="grass_profile" value="big"/>
   </properties>
  </object>
  <object id="444" gid="500" x="9687" y="2539" width="550" height="550" rotation="0.0348643">
   <properties>
    <property name="grass_profile" value="big"/>
   </properties>
  </object>
  <object id="445" gid="500" x="10247" y="2547" width="550" height="550" rotation="0.0348643">
   <properties>
    <property name="grass_profile" value="big"/>
   </properties>
  </object>
  <object id="446" gid="500" x="8575" y="1995" width="550" height="550" rotation="0.0348643">
   <properties>
    <property name="grass_profile" value="big"/>
   </properties>
  </object>
  <object id="447" gid="500" x="9127" y="1995" width="550" height="550" rotation="0.0348643">
   <properties>
    <property name="grass_profile" value="big"/>
   </properties>
  </object>
  <object id="448" gid="500" x="9703" y="1995" width="550" height="550" rotation="0.0348643">
   <properties>
    <property name="grass_profile" value="big"/>
   </properties>
  </object>
  <object id="449" gid="500" x="10263" y="2003" width="550" height="550" rotation="0.0348643">
   <properties>
    <property name="grass_profile" value="big"/>
   </properties>
  </object>
  <object id="450" gid="500" x="11115" y="1135" width="550" height="550" rotation="0.0348643">
   <properties>
    <property name="grass_profile" value="big"/>
   </properties>
  </object>
  <object id="451" gid="500" x="11667" y="1135" width="550" height="550" rotation="0.0348643">
   <properties>
    <property name="grass_profile" value="big"/>
   </properties>
  </object>
  <object id="452" gid="500" x="12243" y="1135" width="550" height="550" rotation="0.0348643">
   <properties>
    <property name="grass_profile" value="big"/>
   </properties>
  </object>
  <object id="453" gid="500" x="12803" y="1143" width="550" height="550" rotation="0.0348643">
   <properties>
    <property name="grass_profile" value="big"/>
   </properties>
  </object>
  <object id="454" gid="500" x="11127" y="579" width="550" height="550" rotation="0.0348643">
   <properties>
    <property name="grass_profile" value="big"/>
   </properties>
  </object>
  <object id="455" gid="500" x="11679" y="579" width="550" height="550" rotation="0.0348643">
   <properties>
    <property name="grass_profile" value="big"/>
   </properties>
  </object>
  <object id="456" gid="500" x="12255" y="579" width="550" height="550" rotation="0.0348643">
   <properties>
    <property name="grass_profile" value="big"/>
   </properties>
  </object>
  <object id="457" gid="500" x="12815" y="587" width="550" height="550" rotation="0.0348643">
   <properties>
    <property name="grass_profile" value="big"/>
   </properties>
  </object>
  <object id="458" gid="500" x="11143" y="35" width="550" height="550" rotation="0.0348643">
   <properties>
    <property name="grass_profile" value="big"/>
   </properties>
  </object>
  <object id="459" gid="500" x="11695" y="35" width="550" height="550" rotation="0.0348643">
   <properties>
    <property name="grass_profile" value="big"/>
   </properties>
  </object>
  <object id="460" gid="500" x="12271" y="35" width="550" height="550" rotation="0.0348643">
   <properties>
    <property name="grass_profile" value="big"/>
   </properties>
  </object>
  <object id="461" gid="500" x="12831" y="43" width="550" height="550" rotation="0.0348643">
   <properties>
    <property name="grass_profile" value="big"/>
   </properties>
  </object>
 </objectgroup>
 <layer id="15" name="grass2" width="30" height="20" visible="0">
  <data encoding="csv">
0,0,0,0,0,0,0,0,0,0,0,0,0,0,0,0,0,0,0,0,0,0,0,0,0,0,0,0,0,0,
0,0,0,0,0,0,0,0,0,0,0,0,0,0,0,0,0,0,0,0,0,0,0,0,0,0,0,0,0,0,
0,0,0,0,0,0,0,0,0,0,0,0,0,0,0,0,0,0,0,0,0,0,0,0,0,0,0,0,0,0,
0,0,0,0,0,0,0,0,0,0,0,0,0,0,0,0,0,0,0,0,0,0,0,0,0,0,0,0,0,0,
0,0,0,0,0,0,0,0,0,0,0,0,0,0,0,0,0,0,0,0,0,0,0,0,0,0,0,0,0,0,
0,0,0,0,0,0,0,0,0,0,0,0,0,0,0,0,0,0,0,0,0,0,0,0,0,0,0,0,0,0,
0,0,0,0,0,0,0,0,0,0,0,0,0,0,0,0,0,0,0,0,0,0,0,0,0,0,0,0,0,0,
0,0,0,0,0,0,0,0,0,0,0,0,0,0,0,0,0,0,0,0,0,0,0,0,0,0,0,0,0,0,
0,0,0,0,0,0,0,0,0,0,0,0,0,0,0,0,0,0,0,0,0,0,0,0,0,0,0,0,0,0,
0,0,0,0,0,0,0,0,0,0,0,0,0,0,0,0,0,0,0,0,0,0,0,0,0,0,0,0,0,0,
0,0,0,0,0,0,0,0,0,0,0,0,0,0,0,0,0,0,0,0,0,0,0,0,0,0,0,0,0,0,
0,0,0,0,0,0,0,0,0,0,0,0,0,0,0,0,0,0,0,0,0,0,0,0,0,0,0,0,0,0,
0,0,0,0,0,0,0,0,0,0,0,0,0,0,0,0,0,0,0,0,0,0,0,0,0,0,0,0,0,0,
0,0,0,0,0,0,0,0,0,0,0,0,0,0,0,0,0,0,0,0,0,0,0,0,0,0,0,0,0,0,
0,0,0,0,0,0,0,0,0,0,0,0,0,0,0,0,0,0,0,0,0,0,0,0,0,0,0,0,0,0,
0,0,0,0,0,0,0,0,0,0,0,0,0,0,0,0,0,0,0,0,0,0,0,0,0,0,0,0,0,0,
0,0,0,0,0,0,0,0,0,0,0,0,0,0,0,0,0,0,0,0,0,0,0,0,0,0,0,0,0,0,
0,0,0,0,0,0,0,0,0,0,0,0,0,0,0,0,0,0,0,0,0,0,0,0,0,0,0,0,0,0,
0,0,0,0,0,0,0,0,0,0,0,0,0,0,0,0,0,0,0,0,0,0,0,0,0,0,0,0,0,0,
0,0,0,0,0,0,0,0,0,0,0,0,0,0,0,0,0,0,0,0,0,0,0,0,0,0,0,0,0,0
</data>
 </layer>
</map>
